static/img/showcase/azle_logo.svg

<svg width="112" height="112" viewBox="0 0 112 112" fill="none" xmlns="http://www.w3.org/2000/svg">
<path fill-rule="evenodd" clip-rule="evenodd" d="M16 99.1264V21.3707C19.0965 27.5012 35.7851 32.1839 55.9081 32.1839C76.031 32.1839 92.7196 27.5012 95.8161 21.3707V99.1264C95.8161 99.1265 95.8161 99.1265 95.8161 99.1265C95.816 106.236 77.9486 112 55.9081 112C33.8675 112 16.0001 106.236 16 99.1265C16 99.1265 16 99.1265 16 99.1264Z" fill="url(#paint0_linear_702_2)"/>
<path fill-rule="evenodd" clip-rule="evenodd" d="M55.9081 49.8207C42.7081 58.8322 22.6943 58.1886 22.1793 49.692V95.782C22.1793 95.7843 22.1793 95.7866 22.1793 95.7889C22.1793 95.7912 22.1793 95.7934 22.1793 95.7957V95.9194H22.183C22.4522 100.689 37.4483 104.533 55.9081 104.533C74.3678 104.533 89.3639 100.689 89.6331 95.9194H89.6368V95.7889V47.8897C81.2583 37.5729 65.4345 43.3171 55.9081 49.8207Z" fill="url(#paint1_linear_702_2)"/>
<path fill-rule="evenodd" clip-rule="evenodd" d="M55.9081 49.8207C42.7081 58.8322 22.6943 58.1886 22.1793 49.692V95.782C22.1793 95.7843 22.1793 95.7866 22.1793 95.7889C22.1793 95.7912 22.1793 95.7934 22.1793 95.7957V95.9194H22.183C22.4522 100.689 37.4483 104.533 55.9081 104.533C74.3678 104.533 89.3639 100.689 89.6331 95.9194H89.6368V95.7889V47.8897C81.2583 37.5729 65.4345 43.3171 55.9081 49.8207Z" fill="url(#paint2_linear_702_2)" fill-opacity="0.2"/>
<ellipse cx="55.9081" cy="95.7888" rx="33.7287" ry="8.74453" fill="url(#paint3_radial_702_2)" fill-opacity="0.1"/>
<path d="M55.9081 49.8207C55.9081 49.8207 47.5403 56.2517 35.5679 56.3863C27.8442 56.473 22.0506 54.1978 22.1793 49.1771C22.1793 44.4134 29.519 42.4828 34.4092 42.6115C44.1931 42.869 55.9081 49.8207 55.9081 49.8207Z" fill="url(#paint4_linear_702_2)"/>
<path d="M55.9081 49.8207C55.9081 49.8207 64.2759 54.9644 76.2483 55.0989C83.9719 55.1857 89.7655 52.9104 89.6368 47.8897C89.6368 47.8897 85.7747 42.2253 77.2782 42.2253C66.3357 42.2253 55.9081 49.8207 55.9081 49.8207Z" fill="url(#paint5_linear_702_2)"/>
<path d="M52.6551 93.0499C52.5973 92.8583 51.0058 87.5616 50.9481 87.3701C48.0805 87.245 45.2178 87.0101 42.3687 86.6653C41.7969 88.4661 41.2224 90.2624 40.645 92.0518C38.8601 91.8051 37.0811 91.5146 35.3103 91.1802C38.0976 83.8654 40.851 76.3099 43.5719 68.7402C45.6042 68.9567 47.6423 69.1194 49.6832 69.2282C52.4981 77.3061 55.2472 85.1993 58.0598 93.0735C56.2584 93.1093 54.4561 93.1014 52.6551 93.0499V93.0499ZM49.7579 83.1149C49.5817 82.5388 48.2256 78.0986 48.0494 77.5225C47.942 77.1492 47.7965 76.6712 47.6135 76.0876C47.441 75.4941 47.2632 74.8948 47.0796 74.2889C46.907 73.6733 46.7663 73.1403 46.6582 72.6907C46.5517 73.123 46.4025 73.6598 46.2105 74.2996C46.0291 74.9298 45.8532 75.5279 45.6823 76.0935C45.5116 76.6583 45.3883 77.0627 45.314 77.3022C44.7532 79.0783 44.1911 80.8509 43.6277 82.6171C45.6659 82.8387 47.7103 83.0046 49.7579 83.1149V83.1149ZM76.3607 91.1872C70.5915 92.2725 64.7365 92.8952 58.8691 93.0545C58.8676 91.9729 58.8664 90.8913 58.8653 89.8097C62.6245 84.317 66.4024 78.5863 70.1548 72.7327C66.5096 73.1897 62.8427 73.4707 59.1709 73.5761C59.1722 72.1984 59.1737 70.8207 59.1756 69.443C64.8351 69.2818 70.4826 68.7064 76.0576 67.715C76.0501 68.7892 76.0436 69.8633 76.0382 70.9372C72.3097 76.9828 68.5546 82.9102 64.8197 88.6029C68.6814 88.293 72.5273 87.7827 76.3364 87.0721C76.3428 88.4441 76.3509 89.8158 76.3607 91.1872V91.1872Z" fill="white" fill-opacity="0.9"/>
<path d="M22.1793 32.1839C26.2989 43.8988 87.8345 42.869 89.6369 32.1839V47.8896C81.6552 37.977 65.614 42.9977 55.9081 49.8207C42.9058 58.9609 21.9219 58.446 22.1793 49.177V32.1839Z" fill="url(#paint6_linear_702_2)"/>
<path fill-rule="evenodd" clip-rule="evenodd" d="M89.6368 32.1804C89.6368 32.1784 89.6368 32.1764 89.6368 32.1744C89.6368 32.1725 89.6368 32.1705 89.6368 32.1685V24.7172H73.5326C68.4037 23.9007 62.368 23.4299 55.9081 23.4299C49.4482 23.4299 43.4124 23.9007 38.2836 24.7172H22.1793V32.4414H22.1947C22.739 37.1474 37.6247 40.919 55.9081 40.919C74.1915 40.919 89.0771 37.1474 89.6214 32.4414H89.6368V32.1804Z" fill="url(#paint7_linear_702_2)"/>
<path fill-rule="evenodd" clip-rule="evenodd" d="M55.9081 34.2437C77.9487 34.2437 95.8161 28.48 95.8161 21.3701V12.8736H85.8903C78.5765 10.1901 67.8554 8.49655 55.9081 8.49655C43.9607 8.49655 33.2396 10.1901 25.9258 12.8736H16V21.3701C16 28.48 33.8674 34.2437 55.9081 34.2437Z" fill="url(#paint8_linear_702_2)"/>
<ellipse cx="55.9081" cy="12.8736" rx="39.9081" ry="12.8736" fill="#212121"/>
<path d="M42.2621 0.772407C46.1642 0.318555 48.7116 0.155441 53.8483 0.0154419L79.338 23.3011C74.6618 24.3747 71.9699 24.8102 66.9793 25.2322L42.2621 0.772407Z" fill="#9C711E"/>
<path d="M66.9794 25.2322C71.921 24.7764 74.6202 24.3355 79.338 23.3011V59.8621C76.5058 59.4759 75.4826 59.1732 73.1587 58.5747C72.0572 59.3077 69.9403 60.5057 66.9794 61.7931V25.2322Z" fill="#CCA725"/>
<path opacity="0.9" d="M73.1601 39.4821C72.0424 39.651 71.2167 40.0221 70.6604 40.6653C70.1068 41.3053 69.827 42.2089 69.8327 43.3902C69.8519 47.3771 69.8449 51.3658 69.8115 55.3563C70.282 55.3263 70.7527 55.2943 71.2226 55.2545C71.2484 53.9683 71.2688 52.6825 71.2837 51.397C71.7265 51.8177 72.4979 51.9958 73.5038 51.817C73.5593 51.8072 73.614 51.7964 73.6678 51.7849V51.7849C74.751 51.5625 75.6532 50.9792 76.2681 50.2073C76.8918 49.4242 77.2544 48.4151 77.2775 47.2136C77.3048 45.8025 76.4703 45.1814 75.0249 45.0416C75.93 44.3079 76.4264 43.2078 76.4545 41.7836C76.4722 40.886 76.2511 40.2537 75.8157 39.8703C75.3778 39.4846 74.7195 39.3434 73.8085 39.4083C73.6046 39.4228 73.3883 39.4476 73.1601 39.4821V39.4821ZM73.3043 40.6298C73.4773 40.6026 73.6369 40.5881 73.7831 40.5867C74.6463 40.5815 75.0654 41.0296 75.0366 42.01C75.0029 43.1512 74.5396 44.014 73.7166 44.5154C73.3465 44.7464 72.8872 44.9014 72.319 44.9718C72.3183 45.4135 72.3172 45.8553 72.3157 46.2971C72.8541 46.2042 73.3128 46.1492 73.6973 46.1381C74.9879 46.1175 75.7264 46.5253 75.7136 47.6667C75.6961 49.2257 74.9575 50.2897 73.6693 50.562C73.6323 50.5703 73.5948 50.5778 73.5566 50.5847C72.6321 50.752 71.8613 50.3699 71.3014 49.5274C71.3168 47.4556 71.3178 45.3846 71.3045 43.3146C71.294 41.6845 71.9653 40.8401 73.3043 40.6298V40.6298Z" fill="white"/>
<defs>
<linearGradient id="paint0_linear_702_2" x1="16" y1="69.2598" x2="95.8161" y2="69.2598" gradientUnits="userSpaceOnUse">
<stop stop-color="#A3B5BD" stop-opacity="0.9"/>
<stop offset="0.059645" stop-color="#C3D7E0" stop-opacity="0.9"/>
<stop offset="0.179573" stop-color="#C3D7E0" stop-opacity="0.9"/>
<stop offset="1" stop-color="#EDF5F9" stop-opacity="0.9"/>
</linearGradient>
<linearGradient id="paint1_linear_702_2" x1="22.1793" y1="74.3909" x2="89.3803" y2="74.3909" gradientUnits="userSpaceOnUse">
<stop offset="0.0797683" stop-color="#016FBA"/>
<stop offset="0.117981" stop-color="#017ACC"/>
<stop offset="0.911119" stop-color="#017ACC"/>
<stop offset="1" stop-color="#016FBA"/>
</linearGradient>
<linearGradient id="paint2_linear_702_2" x1="55.9081" y1="42.2253" x2="55.9081" y2="65.6552" gradientUnits="userSpaceOnUse">
<stop stop-color="#003355"/>
<stop offset="1" stop-opacity="0"/>
</linearGradient>
<radialGradient id="paint3_radial_702_2" cx="0" cy="0" r="1" gradientUnits="userSpaceOnUse" gradientTransform="translate(51.2736 96.423) rotate(90) scale(8.11035 29.0943)">
<stop offset="0.631526" stop-color="#016FBA"/>
<stop offset="0.885368" stop-opacity="0.4"/>
<stop offset="1" stop-opacity="0.5"/>
</radialGradient>
<linearGradient id="paint4_linear_702_2" x1="22.1794" y1="48.21" x2="89.6369" y2="48.21" gradientUnits="userSpaceOnUse">
<stop offset="0.0207013" stop-color="#016FBA"/>
<stop offset="0.123105" stop-color="#017ACC"/>
<stop offset="1" stop-color="#016FBA"/>
</linearGradient>
<linearGradient id="paint5_linear_702_2" x1="72.7735" y1="42.2253" x2="72.7735" y2="55.1013" gradientUnits="userSpaceOnUse">
<stop stop-color="white" stop-opacity="0.11"/>
<stop offset="1" stop-color="white" stop-opacity="0"/>
</linearGradient>
<linearGradient id="paint6_linear_702_2" x1="22.1793" y1="44.2851" x2="89.6369" y2="44.2851" gradientUnits="userSpaceOnUse">
<stop offset="0.0802511" stop-opacity="0.05"/>
<stop offset="0.114554" stop-opacity="0"/>
<stop offset="0.900788" stop-opacity="0"/>
<stop offset="0.917013" stop-opacity="0.05"/>
</linearGradient>
<linearGradient id="paint7_linear_702_2" x1="22.1793" y1="53.9527" x2="89.3803" y2="53.9527" gradientUnits="userSpaceOnUse">
<stop offset="0.0797683" stop-color="#212121"/>
<stop offset="0.119244" stop-color="#343434"/>
<stop offset="0.911119" stop-color="#343434"/>
<stop offset="1" stop-color="#212121"/>
</linearGradient>
<linearGradient id="paint8_linear_702_2" x1="16" y1="21.3701" x2="95.8161" y2="21.3701" gradientUnits="userSpaceOnUse">
<stop offset="0.0782724" stop-color="#212121"/>
<stop offset="0.177817" stop-color="#424242"/>
<stop offset="0.909626" stop-color="#424242"/>
<stop offset="1" stop-color="#212121"/>
</linearGradient>
</defs>
</svg>

<svg xmlns="http://www.w3.org/2000/svg" width="112" height="112" fill="none" viewBox="0 0 112 112"><path fill="url(#a)" fill-rule="evenodd" d="M16 99.126V21.371c3.096 6.13 19.785 10.813 39.908 10.813S92.72 27.5 95.816 21.37v77.755c0 7.11-17.867 12.874-39.908 12.874C33.868 112 16 106.236 16 99.126Z" clip-rule="evenodd"/><path fill="url(#b)" fill-rule="evenodd" d="M55.908 49.82c-13.2 9.012-33.214 8.369-33.729-.128v46.227h.004c.27 4.77 15.265 8.614 33.725 8.614s33.456-3.844 33.725-8.614h.004V47.89c-8.379-10.316-24.203-4.572-33.729 1.932Z" clip-rule="evenodd"/><path fill="url(#c)" fill-opacity=".2" fill-rule="evenodd" d="M55.908 49.82c-13.2 9.012-33.214 8.369-33.729-.128v46.227h.004c.27 4.77 15.265 8.614 33.725 8.614s33.456-3.844 33.725-8.614h.004V47.89c-8.379-10.316-24.203-4.572-33.729 1.932Z" clip-rule="evenodd"/><ellipse cx="55.908" cy="95.789" fill="url(#d)" fill-opacity=".1" rx="33.729" ry="8.745"/><path fill="url(#e)" d="M55.908 49.82s-8.368 6.432-20.34 6.566c-7.724.087-13.517-2.188-13.389-7.209 0-4.764 7.34-6.694 12.23-6.566 9.784.258 21.5 7.21 21.5 7.21Z"/><path fill="url(#f)" d="M55.908 49.82s8.368 5.144 20.34 5.279c7.724.087 13.517-2.189 13.389-7.21 0 0-3.862-5.664-12.359-5.664-10.942 0-21.37 7.596-21.37 7.596Z"/><path fill="#fff" fill-opacity=".9" d="m52.655 93.05-1.707-5.68c-2.867-.125-5.73-.36-8.58-.705-.571 1.801-1.146 3.597-1.723 5.387a109.664 109.664 0 0 1-5.335-.872c2.788-7.315 5.541-14.87 8.262-22.44 2.032.217 4.07.38 6.111.488 2.815 8.078 5.564 15.971 8.377 23.846-1.802.035-3.604.027-5.405-.024Zm-2.897-9.935-1.709-5.593a66.052 66.052 0 0 0-.435-1.434c-.173-.594-.35-1.193-.534-1.8a45.138 45.138 0 0 1-.422-1.597c-.106.432-.255.969-.447 1.609a142.514 142.514 0 0 1-.897 3.002c-.56 1.776-1.123 3.549-1.686 5.315 2.038.222 4.082.388 6.13.498Zm26.603 8.072a110.944 110.944 0 0 1-17.492 1.868l-.004-3.245a682.38 682.38 0 0 0 11.29-17.077 114.79 114.79 0 0 1-10.984.843l.005-4.133c5.66-.161 11.307-.737 16.882-1.728-.008 1.074-.014 2.148-.02 3.222A750.146 750.146 0 0 1 64.82 88.603c3.861-.31 7.707-.82 11.516-1.53.007 1.371.015 2.743.025 4.114Z"/><path fill="url(#g)" d="M22.18 32.184c4.119 11.715 65.655 10.685 67.457 0V47.89c-7.982-9.913-24.023-4.892-33.729 1.93-13.002 9.14-33.986 8.626-33.729-.643V32.184Z"/><path fill="url(#h)" fill-rule="evenodd" d="M89.637 32.18v-7.463H73.533c-5.13-.816-11.165-1.287-17.625-1.287-6.46 0-12.496.47-17.624 1.287H22.179v7.724h.016c.544 4.706 15.43 8.478 33.713 8.478 18.284 0 33.17-3.772 33.713-8.478h.016v-.26Z" clip-rule="evenodd"/><path fill="url(#i)" fill-rule="evenodd" d="M55.908 34.244c22.04 0 39.908-5.764 39.908-12.874v-8.496H85.89c-7.314-2.684-18.035-4.377-29.982-4.377S33.24 10.19 25.926 12.874H16v8.496c0 7.11 17.867 12.874 39.908 12.874Z" clip-rule="evenodd"/><ellipse cx="55.908" cy="12.874" fill="#212121" rx="39.908" ry="12.874"/><path fill="#9C711E" d="M42.262.772C46.164.32 48.712.155 53.848.015l25.49 23.286c-4.676 1.074-7.368 1.51-12.359 1.931L42.262.772Z"/><path fill="#CCA725" d="M66.98 25.232c4.941-.456 7.64-.896 12.358-1.93v36.56c-2.832-.386-3.855-.689-6.18-1.287-1.1.733-3.218 1.93-6.179 3.218v-36.56Z"/><path fill="#fff" d="M73.16 39.482c-1.118.169-1.943.54-2.5 1.183-.553.64-.833 1.544-.827 2.725.019 3.987.012 7.976-.022 11.966.471-.03.942-.062 1.412-.102.025-1.286.046-2.572.06-3.857.444.42 1.215.599 2.22.42a4.457 4.457 0 0 0 2.764-1.61c.625-.783.987-1.792 1.01-2.993.028-1.411-.807-2.033-2.252-2.172.905-.734 1.401-1.834 1.43-3.258.017-.898-.204-1.53-.64-1.914-.437-.385-1.096-.527-2.007-.462-.203.015-.42.04-.648.074Zm.144 1.148c.173-.027.333-.042.48-.043.862-.006 1.281.443 1.253 1.423-.034 1.141-.497 2.004-1.32 2.505-.37.231-.83.386-1.398.457l-.003 1.325a10.06 10.06 0 0 1 1.381-.159c1.29-.02 2.03.387 2.017 1.529-.018 1.559-.757 2.623-2.045 2.895a2.738 2.738 0 0 1-.112.023c-.925.167-1.696-.215-2.256-1.058.016-2.071.017-4.142.004-6.212-.011-1.63.66-2.475 2-2.685Z" opacity=".9"/><defs><linearGradient id="a" x1="16" x2="95.816" y1="69.26" y2="69.26" gradientUnits="userSpaceOnUse"><stop stop-color="#A3B5BD" stop-opacity=".9"/><stop offset=".06" stop-color="#C3D7E0" stop-opacity=".9"/><stop offset=".18" stop-color="#C3D7E0" stop-opacity=".9"/><stop offset="1" stop-color="#EDF5F9" stop-opacity=".9"/></linearGradient><linearGradient id="b" x1="22.179" x2="89.38" y1="74.391" y2="74.391" gradientUnits="userSpaceOnUse"><stop offset=".08" stop-color="#016FBA"/><stop offset=".118" stop-color="#017ACC"/><stop offset=".911" stop-color="#017ACC"/><stop offset="1" stop-color="#016FBA"/></linearGradient><linearGradient id="c" x1="55.908" x2="55.908" y1="42.225" y2="65.655" gradientUnits="userSpaceOnUse"><stop stop-color="#035"/><stop offset="1" stop-opacity="0"/></linearGradient><linearGradient id="e" x1="22.179" x2="89.637" y1="48.21" y2="48.21" gradientUnits="userSpaceOnUse"><stop offset=".021" stop-color="#016FBA"/><stop offset=".123" stop-color="#017ACC"/><stop offset="1" stop-color="#016FBA"/></linearGradient><linearGradient id="f" x1="72.773" x2="72.773" y1="42.225" y2="55.101" gradientUnits="userSpaceOnUse"><stop stop-color="#fff" stop-opacity=".11"/><stop offset="1" stop-color="#fff" stop-opacity="0"/></linearGradient><linearGradient id="g" x1="22.179" x2="89.637" y1="44.285" y2="44.285" gradientUnits="userSpaceOnUse"><stop offset=".08" stop-opacity=".05"/><stop offset=".115" stop-opacity="0"/><stop offset=".901" stop-opacity="0"/><stop offset=".917" stop-opacity=".05"/></linearGradient><linearGradient id="h" x1="22.179" x2="89.38" y1="53.953" y2="53.953" gradientUnits="userSpaceOnUse"><stop offset=".08" stop-color="#212121"/><stop offset=".119" stop-color="#343434"/><stop offset=".911" stop-color="#343434"/><stop offset="1" stop-color="#212121"/></linearGradient><linearGradient id="i" x1="16" x2="95.816" y1="21.37" y2="21.37" gradientUnits="userSpaceOnUse"><stop offset=".078" stop-color="#212121"/><stop offset=".178" stop-color="#424242"/><stop offset=".91" stop-color="#424242"/><stop offset="1" stop-color="#212121"/></linearGradient><radialGradient id="d" cx="0" cy="0" r="1" gradientTransform="matrix(0 8.11035 -29.0943 0 51.274 96.423)" gradientUnits="userSpaceOnUse"><stop offset=".632" stop-color="#016FBA"/><stop offset=".885" stop-opacity=".4"/><stop offset="1" stop-opacity=".5"/></radialGradient></defs></svg>
